X: 1273
T: The Sligo Chorus
M:C|
L:1/8
R:Reel
B:O'Neill's 1273
N:Collected by Ennis
Z:Transcribed by Trish O'Neil
K:D
(AG)|(3FED (AD) BDAD|(3FED (3ABcd2(AG)|(3FED AD BG (3GFG|BdcA GBAG|
(3FED (AD) BDAD|(3FED (3ABcd2(3ABc|dfec dc (3ABc|dcAFG2||
(AB)|cABG (3ABA AB|cAB^GA2(ed)|cBcd eaaf|gedc dfed|
cABG (3ABA AB|cAB^GA2(3ABc|dfec dc (3ABc|dcAFG2||


